X:1
T:Title
%%score { ( 1 4 ) | ( 2 3 ) }
L:1/8
Q:1/4=100
M:4/4
K:F
V:1 treble nm="Grand Piano"
V:4 treble 
V:2 bass 
V:3 bass 
V:1
 A2 GF E3 [GB] | [GB]2 [FA]G A3 A | z4 c2 [F=B]2[K:bass] | [Ec]6 z2 | A2 GF c3 d | %5
w: O.~A.~Miller * * * *|||||
 cA[GB][Ec] [CFA]3 [DFA] | G2 z [Fd] c A2 [CEG] | [CFA]6 z2 |] %8
w: |||
V:2
 [F,CF]2 [G,CE][A,C] [G,B,C]3 [E,C] | [C,C]2 z[K:treble] E [F,CF]3 [F,CF] | %2
 [B,F]3 [A,CF] F-[F,F][K:bass] .[D,G,]2 | G,4 z4 | [F,CF]2 [G,CE][A,C] [B,CE]3 [B,CE] | %5
 .A,2[K:bass] z2 z4 | z2[K:treble] B[K:bass][=B,,_A,] =A, C2 B,, | F,6 z2 |] %8
V:3
 x8 | z2 [C,C]2[K:treble] z4 | z4 .[A,C]2[K:bass] z2 | C,6 z2 | x8 | %5
 [CF]-[F,CF][K:bass]E,C, F,3 F, | B,,4[K:treble][K:bass] C,4 | x8 |] %8
V:4
 x8 | x8 | d3 c z A, z[K:bass] G,, | z4 C2 z2 | x8 | z2 C2 z4 | [B,D]4 F4 | x8 |] %8

